assets/icons/devices/apple/airpods.gen3.svg

<svg xmlns="http://www.w3.org/2000/svg" xml:space="preserve" style="enable-background:new 0 0 128 128" viewBox="0 0 128 128">
  <circle cx="64" cy="64" r="64" style="fill:#656365"/>
  <path fill="none" d="M24 35.2h80v57.7H24z" style="fill-opacity:0"/>
  <path d="M46.1 35.4C36 35.3 24 45.4 24 55.1c0 8.1 8.1 14.4 14.6 14.4 9.1 0 21.6-10.6 21.6-19.3 0-8.5-6.6-14.7-14.1-14.8zM35.5 65c-1.8 0-4.7-2.3-6.4-5.1-1.7-2.9-1.7-5.2.2-5.2 1.8 0 4.7 2.3 6.4 5.2 1.6 2.8 1.6 5.1-.2 5.1zm9.1-14.6c-1-1.5-.7-3.4.8-4.5l4.6-3.3c1.4-1 3.4-.7 4.4.8 1.1 1.4.8 3.3-.7 4.4L49.1 51c-1.5 1.2-3.5.8-4.5-.6zm3.1 42.4h4.1c2 0 3.4-1 3.4-3V65.3c-3.2 2.9-7 5.2-10.8 6.4v18.1c-.1 2 1.2 3 3.3 3zm34.2-57.4c-7.6.1-14.1 6.3-14.1 14.8 0 8.8 12.5 19.3 21.6 19.3 6.5 0 14.6-6.3 14.6-14.4 0-9.7-12-19.8-22.1-19.7zM92.5 65c-1.8 0-1.9-2.3-.1-5.1 1.7-2.9 4.6-5.2 6.4-5.2 1.8 0 1.9 2.3.2 5.2-1.8 2.8-4.6 5.1-6.5 5.1zm-9.1-14.6c-1 1.4-3 1.8-4.5.7l-4.6-3.2c-1.5-1.1-1.8-3-.7-4.4 1-1.5 3-1.8 4.4-.8l4.6 3.3c1.5.9 1.8 2.9.8 4.4zm-3.1 42.4c2.1 0 3.4-1 3.4-3V71.7c-3.8-1.2-7.6-3.5-10.8-6.4v24.5c0 2 1.3 3 3.4 3h4z" style="fill:#fff;fill-opacity:.85"/>
</svg>

<?xml version="1.0" encoding="utf-8"?>
<!-- Generator: Adobe Illustrator 26.0.2, SVG Export Plug-In . SVG Version: 6.00 Build 0)  -->
<svg version="1.1" id="Layer_1" xmlns="http://www.w3.org/2000/svg" xmlns:xlink="http://www.w3.org/1999/xlink" x="0px" y="0px"
	 viewBox="0 0 128 128" style="enable-background:new 0 0 128 128;" xml:space="preserve">
<style type="text/css">
	.st0{fill:#656365;}
	.st1{fill-opacity:0;}
	.st2{fill:#FFFFFF;fill-opacity:0.85;}
</style>
<circle class="st0" cx="64" cy="64" r="64"/>
<g>
	<rect x="24" y="35.2" class="st1" width="80" height="57.7"/>
	<path class="st2" d="M46.1,35.4C36,35.3,24,45.4,24,55.1c0,8.1,8.1,14.4,14.6,14.4c9.1,0,21.6-10.6,21.6-19.3
		C60.2,41.7,53.6,35.5,46.1,35.4z M35.5,65c-1.8,0-4.7-2.3-6.4-5.1c-1.7-2.9-1.7-5.2,0.2-5.2c1.8,0,4.7,2.3,6.4,5.2
		C37.3,62.7,37.3,65,35.5,65z M44.6,50.4c-1-1.5-0.7-3.4,0.8-4.5l4.6-3.3c1.4-1,3.4-0.7,4.4,0.8c1.1,1.4,0.8,3.3-0.7,4.4l-4.6,3.2
		C47.6,52.2,45.6,51.8,44.6,50.4z M47.7,92.8h4.1c2,0,3.4-1,3.4-3V65.3c-3.2,2.9-7,5.2-10.8,6.4v18.1C44.3,91.8,45.6,92.8,47.7,92.8
		z M81.9,35.4c-7.6,0.1-14.1,6.3-14.1,14.8c0,8.8,12.5,19.3,21.6,19.3c6.5,0,14.6-6.3,14.6-14.4C104,45.4,92,35.3,81.9,35.4z
		 M92.5,65c-1.8,0-1.9-2.3-0.1-5.1c1.7-2.9,4.6-5.2,6.4-5.2c1.8,0,1.9,2.3,0.2,5.2C97.2,62.7,94.4,65,92.5,65z M83.4,50.4
		c-1,1.4-3,1.8-4.5,0.7l-4.6-3.2c-1.5-1.1-1.8-3-0.7-4.4c1-1.5,3-1.8,4.4-0.8l4.6,3.3C84.1,46.9,84.4,48.9,83.4,50.4z M80.3,92.8
		c2.1,0,3.4-1,3.4-3V71.7c-3.8-1.2-7.6-3.5-10.8-6.4v24.5c0,2,1.3,3,3.4,3H80.3z"/>
</g>
</svg>
